X:220
T:Forcalquier
C:Mario Loiselle
Z:robin.beech@mcgill.ca
M:3/4
L:1/8
K:D
zA, DE FA | FE DE FA | dc BA GF | ED B,4 |
zA, DE FA | FE DE FA | dc BA GA | A6 ::
zB, CD BA | C6 | zD EF dc | B2 A4 |
zB, CD BA | D6 |1 zA GF GA | E6 :|2 zd cB ce A6 |]

